assets/images/SVG/Lock.svg

<?xml version="1.0" encoding="utf-8"?>
<svg version="1.1" xmlns="http://www.w3.org/2000/svg" xmlns:xlink="http://www.w3.org/1999/xlink" x="0px" y="0px"
	 width="30px" height="30px" viewBox="0 0 30 30" enable-background="new 0 0 30 30" xml:space="preserve">
<path d="M21,11.5h-1v-2c0-2.76-2.24-5-5-5s-5,2.24-5,5v2H9c-1.1,0-2,0.9-2,2v10c0,1.1,0.9,2,2,2h12c1.1,0,2-0.9,2-2
	v-10C23,12.4,22.1,11.5,21,11.5z M15,20.5c-1.1,0-2-0.9-2-2s0.9-2,2-2c1.1,0,2,0.9,2,2S16.1,20.5,15,20.5z M18.1,11.5h-6.2v-2
	c0-1.71,1.39-3.1,3.1-3.1s3.1,1.39,3.1,3.1V11.5z"/>
</svg>

<svg width="30" height="30" viewBox="0 0 30 30" fill="none" xmlns="http://www.w3.org/2000/svg">
<path d="M21 11.5H20V9.5C20 6.74 17.76 4.5 15 4.5C12.24 4.5 10 6.74 10 9.5V11.5H9C7.9 11.5 7 12.4 7 13.5V23.5C7 24.6 7.9 25.5 9 25.5H21C22.1 25.5 23 24.6 23 23.5V13.5C23 12.4 22.1 11.5 21 11.5ZM15 20.5C13.9 20.5 13 19.6 13 18.5C13 17.4 13.9 16.5 15 16.5C16.1 16.5 17 17.4 17 18.5C17 19.6 16.1 20.5 15 20.5ZM18.1 11.5H11.9V9.5C11.9 7.79 13.29 6.4 15 6.4C16.71 6.4 18.1 7.79 18.1 9.5V11.5Z" fill="white"/>
</svg>
